X:1
T: Look Before You
C:William Marshall
R:Strathspey
Q: 128
K:D
M:4/4
L:1/16
|:F2|D3A F3A D3A F3A|E2=c2 c3G E4 ^C2E2|D3A F3A D3A F3A|D2d2 d3A F4 D2F2|
D3A F3A D3A F3A|E2=c2 c3G E4 ^C2E2|D3A F3A D3A F3A|D2d2 d3A F4 D2f2|
d3f A3f d3f A3B|=c3d e3f g4 agfe|d3f A3f d3f A3f|d3e f3g a4 agfe|
d3f A3f d3f A3B|=c3d e3f g4 e2fg|a3f g3e f3d e3c|d3A B3G F4 D2:|
